X:1
T:James Gibb editions
T:Die Furcht des Herren  - Schütz
T:#
%%score [ 1 2 ] 3
L:1/8
Q:1/4=120
M:4/4
K:F
V:1 treble-8 nm="Tenor I"
V:2 treble-8 nm="Tenor II"
V:3 bass nm="Continuo"
V:1
"^Die Furcht des Herren, SWV 318""^Heinrich Schütz\n(1585-1672)""^Psalm 111:10" d8 | ^F4 B4 | A8 | %3
w: Die|Furcht des|Her-|
 G8 | z8 | z8 | z4 B3 B | B2 G2 c4 | d4 d3 d | G2 B4 A2 | B4 z2 B2 | A2 AB (c2 BA | GAGA B2 AG | %13
w: ren|||ist der|Weis- heit An-|fang, ist der|Weis- heit An-|fang, das|ist ei- ne fei\- * *||
 FGFG A2) F2 | E4 D4 | z8 | d8 | ^F4 B4 | A8 | G8 | z8 | z4 B3 B | B2 G2 c4 | d8 | z8 | z8 | z8 | %27
w: * * * * * ne|Klug- heit,||die|Furcht des|Her-|ren||ist der|Weis- heit An-|fang,||||
 z8 | z4 B4- | B2 A2 G4 | ^F8 | z4 d4- | d2 c2 B4 ||[M:3/2] x12 | %34
w: |wer|* dar- nach|thut,|wer|* dar- nach||
[M:3/2][K:treble-8][Q:1/4=240] A8 d4 | c4 c4 B4 | A2 A2 A4 f4 | _e4 e4 d4 | c6 c2 d4 | d12- | %40
w: thut, des|Lob blei- bet|e- wig- lich, des|Lob blei- bet|e- wig- lich,|e\-|
 d8 ^c4 ||[M:4/4][Q:1/4=120] d4 z2 d2 |[M:4/4][K:treble-8] c2 cd (_e2 dc | BcBc d2 cB | %44
w: * wig-|lich, es|ist ei- ne fei\- * *||
 ABAB c2) B2 | A4 G4 | z8 | z8 | z8 | z4 A4- | A2 G2 F4 ||[M:3/2][K:treble-8][Q:1/4=240] E8 z4 | %52
w: * * * * * ne|Klug- heit,||||wer|* dar- nach|thut,|
 z12 | z4 z4 A4 | G4 G4 F4 | E2 E2 E4 c4 | B4 B4 A4 | G8 G4 | F12 | %59
w: |des|Lob blei- bet|e- wig- lich, des|Lob blei- bet|e- wig-|lich,|
[M:3/2][K:treble-8][Q:1/4=240][Q:1/4=240][Q:1/4=240] z12 | z4 z4 d4 | c4 c4 B4 | A2 A2 A4 d4 || %63
w: |des|Lob blei- bet|e- wig- lich, des|
[M:4/4][Q:1/4=120] c4 c2 B2 | A8- | A4 A4 | !fermata!G8 |] %67
w: Lob blei- bet|e\-|* wig-|lich.|
V:2
 z8 | z8 | z8 | d8 | ^F4 B4 | A8 | G8 | z8 | z4 B3 B | B2 G2 c4 | d8 | z8 | z8 | z8 | z8 | d8 | %16
w: |||Die|Furcht des|Her-|ren||ist der|Weis- heit An-|fang,|||||die|
 ^F4 B4 | (A4 G4- | G2 ^FE F4) | G4 B3 B | B2 G2 c4 | d4 d3 d | G2 B4 A2 | B4 z2 B2 | %24
w: Furcht des|Her\- *||ren ist der|Weis- heit An-|fang, ist der|Weis- heit An-|fang, es|
 A2 AB (c2 BA | GAGA B2 AG | FGFG A2) F2 | E4 D4 | z8 | z8 | z8 | z4 B4- | B2 A2 G4 ||[M:3/2] x12 | %34
w: ist ei- ne fei\- * *||* * * * * ne|Klug- heit,||||wer|* dar- nach||
[M:3/2][K:treble-8] ^F8 z4 | z12 | z4 z4 d4 | c4 c4 B4 | A2 A2 A4 A4 | G4 G4 F4 | E8 E4 || %41
w: thut,||des|Lob blei- bet|e- wig- lich, des|Lob blei- bet|e- wig-|
[M:4/4] D4 z2 B2 |[M:4/4][K:treble-8] A2 AB (c2 BA | GAGA B2 AG | FGFG A2) G2 | ^F4 G4 | z4 A4- | %47
w: lich, es|ist ei- ne fei\- * *||* * * * * ne|Klug- heit,|wer|
 A2 G2 F4 | E8 | z4 c4- | c2 B2 A4 ||[M:3/2][K:treble-8] G8 A4 | G4 G4 F4 | E2 E2 E4 c4 | %54
w: * dar- nach|thut,|wer|* dar- nach|thut, de|Lob blei- bet|e- wig- lich, des|
 B4 B4 A4 | G6 G2 A4 | F12- | F8 E4 | F12 |[M:3/2][K:treble-8] z4 z4 d4 | c4 c4 B4 | A2 A2 A4 d4 | %62
w: Lob blei- bet|e- wig- lich,|e\-|* wig-|lich,|des|Lob blei- bet|e- wig- lich, des|
 c4 c4 B4 ||[M:4/4] (A2 G2 G4- | G4 ^F2 E2 | ^F4) F4 | !fermata!G8 |] %67
w: Lob blei- bet|e\- * *||* wig-|lich.|
V:3
 G,,8 | x4- x4 | x4- x4 | G,,8 | x4- x4 | x4- x4 | G,,8 | G,4 F,4 | B,,4 B,,4 | _E,2 G,2 x2- x2 | %10
w: ||4|||4||||* * 4|
 B,,4 G,,4 | D,4 A,,4 | C,4 G,,4 | B,,4 F,,2 D,,2 | A,,4 D,,4 | G,,8 | x4- x4 | x4- x4 | x4- x4 | %19
w: ||||||||4|
 G,,8 | G,4 F,4 | B,,4 B,,4 | _E,2 G,2 x2- x2 | B,,4 G,,4 | D,4 A,,4 | C,4 G,,4 | B,,4 F,,2 D,,2 | %27
w: |||* * 4|||||
 A,,4 D,,4 | z4 G,,4- | G,,2 ^F,,2 G,,4 | D,8 | z4 G,,4- | G,,2 A,,2 B,,4 ||[M:3/2] x12 | %34
w: |||||* * 6||
[M:3/2] D,8 B,,4 | C,12 | x8- x4 | x8 x4 | F,8 D,4 | G,,12 | x8- x4 ||[M:4/4] D,4 B,,4 | %42
w: ||||||4||
[M:4/4] F,4 C,4 | _E,4 B,,4 | D,4 A,,2 B,,2 | D,4 G,,4 | z4 F,,4- | F,,2 E,,2 F,,4 | C,8 | %49
w: ||* * 6|||||
 z4 F,,4- | F,,2 G,,2 A,,4 ||[M:3/2] C,8 F,,4 | G,,12 | A,,12 | x8- x4 | C,8 A,,4 | B,,12 | %57
w: |* * 6||||6|||
 C,8 C,4 | F,,12 |[M:3/2] B,,12 | A,,8 B,,4 | F,8 B,,4 | F,,8 B,,4 ||[M:4/4] F,4 C,4 | x4- x4 | %65
w: 4 3|||||||4|
 D,8 | !fermata!G,,8 |] %67
w: ||

